X:70
T: Die Hauptmannstochter
N: Q3101E
O: Osteuropa, Tschechoslowakei, Maehren
N: Melodievergleich zu Q0101D, anderes Lied.
R: ???
M: 3/8
L: 1/16
K: G
 | G3GA2 | _B3Ac2 | _BAG4 | =F4z2 |
_B3Bc2 | d3d_B2 | edc4 | _B4z2 |
d3cA2 | c2_BAG2 | _BAG4 | A3AD2 |
G3GA2 | _B2A2B2 | c_BA4 | G4z2

@@@ Tune index: 1363
